app/assets/img/main/intro-subttl01.svg

<svg fill="none" height="25" viewBox="0 0 178 25" width="178" xmlns="http://www.w3.org/2000/svg"><path d="m0 6.519h3.224c.286 0 .533.065.741.195s.33367.299.377.507l1.352 6.045c.104.4593.19933.9057.286 1.339s.16467.8623.234 1.287c.12133-.4247.247-.8493.377-1.274.13867-.4333.273-.884.403-1.352l1.69-6.058c.052-.19933.17767-.364.377-.494.19933-.13867.429-.208.689-.208h1.794c.286 0 .5287.06933.728.208.208.13.338.29467.39.494l1.612 6.058c.1213.4593.2427.9057.364 1.339.13.4333.2513.871.364 1.313.0693-.4333.1517-.8623.247-1.287.104-.4333.2123-.8883.325-1.365l1.43-6.045c.0433-.208.1647-.377.364-.507.208-.13.442-.195.702-.195h3.068l-4.186 13.481h-3.276c-.1733 0-.3207-.052-.442-.156s-.2167-.2773-.286-.52l-1.924-6.721c-.0867-.3033-.169-.6023-.247-.897s-.1473-.5893-.208-.884c-.0607.3033-.13.6067-.208.91-.0693.2947-.1517.5937-.247.897l-1.95 6.695c-.13.4507-.416.676-.858.676h-3.12zm28.7424-.208c.8927 0 1.7073.13867 2.444.416.7453.27733 1.3823.68033 1.911 1.209.5373.52867.9533 1.17867 1.248 1.95.3033.7627.455 1.6293.455 2.6 0 .3033-.013.5503-.039.741s-.0737.3423-.143.455-.1647.1907-.286.234c-.1127.0433-.26.065-.442.065h-7.774c.13 1.1267.4723 1.9457 1.027 2.457.5547.5027 1.2697.754 2.145.754.468 0 .871-.0563 1.209-.169s.637-.2383.897-.377c.2687-.1387.5113-.2643.728-.377.2253-.1127.4593-.169.702-.169.3207 0 .5633.117.728.351l1.17 1.443c-.416.4767-.8667.8667-1.352 1.17-.4767.2947-.9707.5287-1.482.702-.5027.1647-1.0097.2773-1.521.338-.5027.0693-.9837.104-1.443.104-.9447 0-1.833-.1517-2.665-.455-.8233-.312-1.547-.7713-2.171-1.378-.6153-.6067-1.105-1.3607-1.469-2.262-.3553-.9013-.533-1.95-.533-3.146 0-.9013.1517-1.755.455-2.561.312-.806.754-1.51233 1.326-2.119.5807-.60667 1.2783-1.08767 2.093-1.443.8233-.35533 1.7507-.533 2.782-.533zm.078 2.782c-.7713 0-1.3737.221-1.807.663-.4333.4333-.7193 1.0617-.858 1.885h5.031c0-.3207-.0433-.6327-.13-.936-.078-.3033-.2123-.572-.403-.806-.182-.24267-.4247-.43767-.728-.585s-.6717-.221-1.105-.221zm8.5526 10.907v-19.461001h4.03v7.410001c.5026-.494 1.0703-.88833 1.703-1.183.6413-.30333 1.391-.455 2.249-.455.702 0 1.352.15167 1.95.455s1.1136.74967 1.547 1.339c.4333.58067.7713 1.29567 1.014 2.145.2513.8493.377 1.8157.377 2.899 0 1.014-.143 1.95-.429 2.808-.2774.858-.6717 1.6033-1.183 2.236-.5027.6327-1.1094 1.1267-1.82 1.482-.702.3553-1.482.533-2.34.533-.3987 0-.7584-.039-1.079-.117-.312-.078-.6024-.1863-.871-.325-.26-.1473-.5027-.3207-.728-.52-.2167-.1993-.429-.416-.637-.65l-.143.676c-.0607.2773-.1734.468-.338.572-.156.104-.364.156-.624.156zm6.578-10.66c-.2947 0-.5634.03033-.806.091-.234.052-.455.13-.663.234-.1994.104-.3857.23833-.559.403-.1734.156-.3467.338-.52.546v5.72c.3033.338.6326.5763.988.715.3553.13.728.195 1.118.195.3726 0 .715-.0737 1.027-.221s.5806-.3813.806-.702c.234-.3293.416-.754.546-1.274s.195-1.1527.195-1.898c0-.7107-.052-1.3087-.156-1.794s-.2514-.8753-.442-1.17c-.182-.30333-.403-.52-.663-.65s-.5504-.195-.871-.195zm23.5153 10.66c-.2513 0-.4636-.0563-.637-.169-.1646-.1127-.2816-.2817-.351-.507l-.312-1.027c-.2686.286-.5503.546-.845.78-.2946.234-.6153.4377-.962.611-.338.1647-.7063.2903-1.105.377-.39.0953-.8146.143-1.274.143-.702 0-1.352-.156-1.95-.468s-1.1136-.7627-1.547-1.352c-.4333-.5893-.7756-1.3087-1.027-2.158-.2426-.858-.364-1.833-.364-2.925 0-1.0053.1387-1.937.416-2.795.2774-.86667.6674-1.612 1.17-2.236.5114-.63267 1.1224-1.12667 1.833-1.482.7107-.35533 1.495-.533 2.353-.533.6934 0 1.2784.104 1.755.312.4854.19933.923.46367 1.313.793v-6.825001h4.03v19.461001zm-4.082-2.886c.2947 0 .559-.026.793-.078.2427-.0607.4637-.143.663-.247.1994-.104.3857-.234.559-.39.182-.156.3597-.338.533-.546v-5.72c-.312-.338-.6456-.572-1.001-.702-.3466-.13867-.715-.208-1.105-.208-.3726 0-.715.07367-1.027.221s-.585.38567-.819.715c-.2253.3207-.403.741-.533 1.261s-.195 1.1483-.195 1.885c0 .7107.052 1.3087.156 1.794s.247.8797.429 1.183c.1907.2947.416.507.676.637s.5504.195.871.195zm15.7321-10.803c.8926 0 1.7073.13867 2.444.416.7453.27733 1.3823.68033 1.911 1.209.5373.52867.9533 1.17867 1.248 1.95.3033.7627.455 1.6293.455 2.6 0 .3033-.013.5503-.039.741s-.0737.3423-.143.455c-.0694.1127-.1647.1907-.286.234-.1127.0433-.26.065-.442.065h-7.774c.13 1.1267.4723 1.9457 1.027 2.457.5546.5027 1.2696.754 2.145.754.468 0 .871-.0563 1.209-.169s.637-.2383.897-.377c.2686-.1387.5113-.2643.728-.377.2253-.1127.4593-.169.702-.169.3206 0 .5633.117.728.351l1.17 1.443c-.416.4767-.8667.8667-1.352 1.17-.4767.2947-.9707.5287-1.482.702-.5027.1647-1.0097.2773-1.521.338-.5027.0693-.9837.104-1.443.104-.9447 0-1.833-.1517-2.665-.455-.8234-.312-1.547-.7713-2.171-1.378-.6154-.6067-1.105-1.3607-1.469-2.262-.3554-.9013-.533-1.95-.533-3.146 0-.9013.1516-1.755.455-2.561.312-.806.754-1.51233 1.326-2.119.5806-.60667 1.2783-1.08767 2.093-1.443.8233-.35533 1.7506-.533 2.782-.533zm.078 2.782c-.7714 0-1.3737.221-1.807.663-.4334.4333-.7194 1.0617-.858 1.885h5.031c0-.3207-.0434-.6327-.13-.936-.078-.3033-.2124-.572-.403-.806-.182-.24267-.4247-.43767-.728-.585-.3034-.14733-.6717-.221-1.105-.221zm15.5067 10.907h-3.666l-5.226-13.481h3.354c.286 0 .5244.06933.715.208.1994.13.3337.29467.403.494l1.872 6.045c.1474.494.286.975.416 1.443.1387.468.2557.936.351 1.404.0954-.468.2124-.936.351-1.404.1387-.468.286-.949.442-1.443l1.95-6.045c.0694-.19933.1994-.364.39-.494.1907-.13867.416-.208.676-.208h3.198zm12.4329-13.689c.893 0 1.708.13867 2.444.416.746.27733 1.383.68033 1.911 1.209.538.52867.954 1.17867 1.248 1.95.304.7627.455 1.6293.455 2.6 0 .3033-.013.5503-.039.741s-.073.3423-.143.455c-.069.1127-.164.1907-.286.234-.112.0433-.26.065-.442.065h-7.774c.13 1.1267.473 1.9457 1.027 2.457.555.5027 1.27.754 2.145.754.468 0 .871-.0563 1.209-.169s.637-.2383.897-.377c.269-.1387.512-.2643.728-.377.226-.1127.46-.169.702-.169.321 0 .564.117.728.351l1.17 1.443c-.416.4767-.866.8667-1.352 1.17-.476.2947-.97.5287-1.482.702-.502.1647-1.009.2773-1.521.338-.502.0693-.983.104-1.443.104-.944 0-1.833-.1517-2.665-.455-.823-.312-1.547-.7713-2.171-1.378-.615-.6067-1.105-1.3607-1.469-2.262-.355-.9013-.533-1.95-.533-3.146 0-.9013.152-1.755.455-2.561.312-.806.754-1.51233 1.326-2.119.581-.60667 1.279-1.08767 2.093-1.443.824-.35533 1.751-.533 2.782-.533zm.078 2.782c-.771 0-1.373.221-1.807.663-.433.4333-.719 1.0617-.858 1.885h5.031c0-.3207-.043-.6327-.13-.936-.078-.3033-.212-.572-.403-.806-.182-.24267-.424-.43767-.728-.585-.303-.14733-.671-.221-1.105-.221zm12.713-8.554001v19.461001h-4.03v-19.461001zm9.52 5.772001c1.023 0 1.954.16033 2.795.481s1.56.78 2.158 1.378c.607.598 1.075 1.326 1.404 2.184.338.8493.507 1.807.507 2.873 0 1.0747-.169 2.0453-.507 2.912-.329.858-.797 1.5903-1.404 2.197-.598.598-1.317 1.0617-2.158 1.391-.841.3207-1.772.481-2.795.481-1.031 0-1.972-.1603-2.821-.481-.841-.3293-1.569-.793-2.184-1.391-.607-.6067-1.079-1.339-1.417-2.197-.329-.8667-.494-1.8373-.494-2.912 0-1.066.165-2.0237.494-2.873.338-.858.81-1.586 1.417-2.184.615-.598 1.343-1.05733 2.184-1.378.849-.32067 1.79-.481 2.821-.481zm0 10.907c.927 0 1.608-.325 2.041-.975.442-.6587.663-1.6553.663-2.99s-.221-2.327-.663-2.977c-.433-.65-1.114-.975-2.041-.975-.953 0-1.651.325-2.093.975s-.663 1.6423-.663 2.977.221 2.3313.663 2.99c.442.65 1.14.975 2.093.975zm9.336 7.059v-17.758h2.496c.251 0 .459.05633.624.169.173.11267.295.28167.364.507l.299.988c.26-.286.537-.546.832-.78.303-.234.624-.43333.962-.598.347-.17333.715-.30767 1.105-.403.399-.09533.832-.143 1.3-.143.702 0 1.352.156 1.95.468s1.114.76267 1.547 1.352.771 1.313 1.014 2.171c.251.8493.377 1.8157.377 2.899 0 1.014-.143 1.95-.429 2.808-.277.858-.672 1.6033-1.183 2.236-.503.6327-1.109 1.1267-1.82 1.482-.702.3553-1.482.533-2.34.533-.702 0-1.291-.0997-1.768-.299s-.91-.468-1.3-.806v5.174zm6.578-14.937c-.295 0-.563.03033-.806.091-.234.052-.455.13-.663.234-.199.104-.386.23833-.559.403-.173.156-.347.338-.52.546v5.72c.303.338.633.5763.988.715.355.13.728.195 1.118.195.373 0 .715-.0737 1.027-.221s.581-.3813.806-.702c.234-.3293.416-.754.546-1.274s.195-1.1527.195-1.898c0-.7107-.052-1.3087-.156-1.794s-.251-.8753-.442-1.17c-.182-.30333-.403-.52-.663-.65s-.55-.195-.871-.195zm14.485-3.029c.893 0 1.708.13867 2.444.416.746.27733 1.383.68033 1.911 1.209.538.52867.954 1.17867 1.248 1.95.304.7627.455 1.6293.455 2.6 0 .3033-.013.5503-.039.741s-.073.3423-.143.455c-.069.1127-.164.1907-.286.234-.112.0433-.26.065-.442.065h-7.774c.13 1.1267.473 1.9457 1.027 2.457.555.5027 1.27.754 2.145.754.468 0 .871-.0563 1.209-.169s.637-.2383.897-.377c.269-.1387.512-.2643.728-.377.226-.1127.46-.169.702-.169.321 0 .564.117.728.351l1.17 1.443c-.416.4767-.866.8667-1.352 1.17-.476.2947-.97.5287-1.482.702-.502.1647-1.009.2773-1.521.338-.502.0693-.983.104-1.443.104-.944 0-1.833-.1517-2.665-.455-.823-.312-1.547-.7713-2.171-1.378-.615-.6067-1.105-1.3607-1.469-2.262-.355-.9013-.533-1.95-.533-3.146 0-.9013.152-1.755.455-2.561.312-.806.754-1.51233 1.326-2.119.581-.60667 1.279-1.08767 2.093-1.443.824-.35533 1.751-.533 2.782-.533zm.078 2.782c-.771 0-1.373.221-1.807.663-.433.4333-.719 1.0617-.858 1.885h5.031c0-.3207-.043-.6327-.13-.936-.078-.3033-.212-.572-.403-.806-.182-.24267-.424-.43767-.728-.585-.303-.14733-.671-.221-1.105-.221zm8.553 10.907v-13.481h2.392c.199 0 .364.01733.494.052.139.03467.251.091.338.169.095.06933.165.16467.208.286.052.12133.095.26867.13.442l.221 1.261c.494-.76267 1.049-1.365 1.664-1.807s1.287-.663 2.015-.663c.615 0 1.109.14733 1.482.442l-.52 2.964c-.035.182-.104.312-.208.39-.104.0693-.243.104-.416.104-.147 0-.321-.0173-.52-.052-.199-.0433-.451-.065-.754-.065-1.057 0-1.889.5633-2.496 1.69v8.268z" fill="#121111"/></svg>

<svg width="178" height="25" viewBox="0 0 178 25" fill="none" xmlns="http://www.w3.org/2000/svg">
<path d="M0 6.519H3.224C3.51 6.519 3.757 6.584 3.965 6.714C4.173 6.844 4.29867 7.013 4.342 7.221L5.694 13.266C5.798 13.7253 5.89333 14.1717 5.98 14.605C6.06667 15.0383 6.14467 15.4673 6.214 15.892C6.33533 15.4673 6.461 15.0427 6.591 14.618C6.72967 14.1847 6.864 13.734 6.994 13.266L8.684 7.208C8.736 7.00867 8.86167 6.844 9.061 6.714C9.26033 6.57533 9.49 6.506 9.75 6.506H11.544C11.83 6.506 12.0727 6.57533 12.272 6.714C12.48 6.844 12.61 7.00867 12.662 7.208L14.274 13.266C14.3953 13.7253 14.5167 14.1717 14.638 14.605C14.768 15.0383 14.8893 15.476 15.002 15.918C15.0713 15.4847 15.1537 15.0557 15.249 14.631C15.353 14.1977 15.4613 13.7427 15.574 13.266L17.004 7.221C17.0473 7.013 17.1687 6.844 17.368 6.714C17.576 6.584 17.81 6.519 18.07 6.519H21.138L16.952 20H13.676C13.5027 20 13.3553 19.948 13.234 19.844C13.1127 19.74 13.0173 19.5667 12.948 19.324L11.024 12.603C10.9373 12.2997 10.855 12.0007 10.777 11.706C10.699 11.4113 10.6297 11.1167 10.569 10.822C10.5083 11.1253 10.439 11.4287 10.361 11.732C10.2917 12.0267 10.2093 12.3257 10.114 12.629L8.164 19.324C8.034 19.7747 7.748 20 7.306 20H4.186L0 6.519ZM28.7424 6.311C29.6351 6.311 30.4497 6.44967 31.1864 6.727C31.9317 7.00433 32.5687 7.40733 33.0974 7.936C33.6347 8.46467 34.0507 9.11467 34.3454 9.886C34.6487 10.6487 34.8004 11.5153 34.8004 12.486C34.8004 12.7893 34.7874 13.0363 34.7614 13.227C34.7354 13.4177 34.6877 13.5693 34.6184 13.682C34.5491 13.7947 34.4537 13.8727 34.3324 13.916C34.2197 13.9593 34.0724 13.981 33.8904 13.981H26.1164C26.2464 15.1077 26.5887 15.9267 27.1434 16.438C27.6981 16.9407 28.4131 17.192 29.2884 17.192C29.7564 17.192 30.1594 17.1357 30.4974 17.023C30.8354 16.9103 31.1344 16.7847 31.3944 16.646C31.6631 16.5073 31.9057 16.3817 32.1224 16.269C32.3477 16.1563 32.5817 16.1 32.8244 16.1C33.1451 16.1 33.3877 16.217 33.5524 16.451L34.7224 17.894C34.3064 18.3707 33.8557 18.7607 33.3704 19.064C32.8937 19.3587 32.3997 19.5927 31.8884 19.766C31.3857 19.9307 30.8787 20.0433 30.3674 20.104C29.8647 20.1733 29.3837 20.208 28.9244 20.208C27.9797 20.208 27.0914 20.0563 26.2594 19.753C25.4361 19.441 24.7124 18.9817 24.0884 18.375C23.4731 17.7683 22.9834 17.0143 22.6194 16.113C22.2641 15.2117 22.0864 14.163 22.0864 12.967C22.0864 12.0657 22.2381 11.212 22.5414 10.406C22.8534 9.6 23.2954 8.89367 23.8674 8.287C24.4481 7.68033 25.1457 7.19933 25.9604 6.844C26.7837 6.48867 27.7111 6.311 28.7424 6.311ZM28.8204 9.093C28.0491 9.093 27.4467 9.314 27.0134 9.756C26.5801 10.1893 26.2941 10.8177 26.1554 11.641H31.1864C31.1864 11.3203 31.1431 11.0083 31.0564 10.705C30.9784 10.4017 30.8441 10.133 30.6534 9.899C30.4714 9.65633 30.2287 9.46133 29.9254 9.314C29.6221 9.16667 29.2537 9.093 28.8204 9.093ZM37.373 20V0.538999H41.403V7.949C41.9056 7.455 42.4733 7.06067 43.106 6.766C43.7473 6.46267 44.497 6.311 45.355 6.311C46.057 6.311 46.707 6.46267 47.305 6.766C47.903 7.06933 48.4186 7.51567 48.852 8.105C49.2853 8.68567 49.6233 9.40067 49.866 10.25C50.1173 11.0993 50.243 12.0657 50.243 13.149C50.243 14.163 50.1 15.099 49.814 15.957C49.5366 16.815 49.1423 17.5603 48.631 18.193C48.1283 18.8257 47.5216 19.3197 46.811 19.675C46.109 20.0303 45.329 20.208 44.471 20.208C44.0723 20.208 43.7126 20.169 43.392 20.091C43.08 20.013 42.7896 19.9047 42.521 19.766C42.261 19.6187 42.0183 19.4453 41.793 19.246C41.5763 19.0467 41.364 18.83 41.156 18.596L41.013 19.272C40.9523 19.5493 40.8396 19.74 40.675 19.844C40.519 19.948 40.311 20 40.051 20H37.373ZM43.951 9.34C43.6563 9.34 43.3876 9.37033 43.145 9.431C42.911 9.483 42.69 9.561 42.482 9.665C42.2826 9.769 42.0963 9.90333 41.923 10.068C41.7496 10.224 41.5763 10.406 41.403 10.614V16.334C41.7063 16.672 42.0356 16.9103 42.391 17.049C42.7463 17.179 43.119 17.244 43.509 17.244C43.8816 17.244 44.224 17.1703 44.536 17.023C44.848 16.8757 45.1166 16.6417 45.342 16.321C45.576 15.9917 45.758 15.567 45.888 15.047C46.018 14.527 46.083 13.8943 46.083 13.149C46.083 12.4383 46.031 11.8403 45.927 11.355C45.823 10.8697 45.6756 10.4797 45.485 10.185C45.303 9.88167 45.082 9.665 44.822 9.535C44.562 9.405 44.2716 9.34 43.951 9.34ZM67.4663 20C67.215 20 67.0027 19.9437 66.8293 19.831C66.6647 19.7183 66.5477 19.5493 66.4783 19.324L66.1663 18.297C65.8977 18.583 65.616 18.843 65.3213 19.077C65.0267 19.311 64.706 19.5147 64.3593 19.688C64.0213 19.8527 63.653 19.9783 63.2543 20.065C62.8643 20.1603 62.4397 20.208 61.9803 20.208C61.2783 20.208 60.6283 20.052 60.0303 19.74C59.4323 19.428 58.9167 18.9773 58.4833 18.388C58.05 17.7987 57.7077 17.0793 57.4563 16.23C57.2137 15.372 57.0923 14.397 57.0923 13.305C57.0923 12.2997 57.231 11.368 57.5083 10.51C57.7857 9.64333 58.1757 8.898 58.6783 8.274C59.1897 7.64133 59.8007 7.14733 60.5113 6.792C61.222 6.43667 62.0063 6.259 62.8643 6.259C63.5577 6.259 64.1427 6.363 64.6193 6.571C65.1047 6.77033 65.5423 7.03467 65.9323 7.364V0.538999H69.9623V20H67.4663ZM63.3843 17.114C63.679 17.114 63.9433 17.088 64.1773 17.036C64.42 16.9753 64.641 16.893 64.8403 16.789C65.0397 16.685 65.226 16.555 65.3993 16.399C65.5813 16.243 65.759 16.061 65.9323 15.853V10.133C65.6203 9.795 65.2867 9.561 64.9313 9.431C64.5847 9.29233 64.2163 9.223 63.8263 9.223C63.4537 9.223 63.1113 9.29667 62.7993 9.444C62.4873 9.59133 62.2143 9.82967 61.9803 10.159C61.755 10.4797 61.5773 10.9 61.4473 11.42C61.3173 11.94 61.2523 12.5683 61.2523 13.305C61.2523 14.0157 61.3043 14.6137 61.4083 15.099C61.5123 15.5843 61.6553 15.9787 61.8373 16.282C62.028 16.5767 62.2533 16.789 62.5133 16.919C62.7733 17.049 63.0637 17.114 63.3843 17.114ZM79.1164 6.311C80.009 6.311 80.8237 6.44967 81.5604 6.727C82.3057 7.00433 82.9427 7.40733 83.4714 7.936C84.0087 8.46467 84.4247 9.11467 84.7194 9.886C85.0227 10.6487 85.1744 11.5153 85.1744 12.486C85.1744 12.7893 85.1614 13.0363 85.1354 13.227C85.1094 13.4177 85.0617 13.5693 84.9924 13.682C84.923 13.7947 84.8277 13.8727 84.7064 13.916C84.5937 13.9593 84.4464 13.981 84.2644 13.981H76.4904C76.6204 15.1077 76.9627 15.9267 77.5174 16.438C78.072 16.9407 78.787 17.192 79.6624 17.192C80.1304 17.192 80.5334 17.1357 80.8714 17.023C81.2094 16.9103 81.5084 16.7847 81.7684 16.646C82.037 16.5073 82.2797 16.3817 82.4964 16.269C82.7217 16.1563 82.9557 16.1 83.1984 16.1C83.519 16.1 83.7617 16.217 83.9264 16.451L85.0964 17.894C84.6804 18.3707 84.2297 18.7607 83.7444 19.064C83.2677 19.3587 82.7737 19.5927 82.2624 19.766C81.7597 19.9307 81.2527 20.0433 80.7414 20.104C80.2387 20.1733 79.7577 20.208 79.2984 20.208C78.3537 20.208 77.4654 20.0563 76.6334 19.753C75.81 19.441 75.0864 18.9817 74.4624 18.375C73.847 17.7683 73.3574 17.0143 72.9934 16.113C72.638 15.2117 72.4604 14.163 72.4604 12.967C72.4604 12.0657 72.612 11.212 72.9154 10.406C73.2274 9.6 73.6694 8.89367 74.2414 8.287C74.822 7.68033 75.5197 7.19933 76.3344 6.844C77.1577 6.48867 78.085 6.311 79.1164 6.311ZM79.1944 9.093C78.423 9.093 77.8207 9.314 77.3874 9.756C76.954 10.1893 76.668 10.8177 76.5294 11.641H81.5604C81.5604 11.3203 81.517 11.0083 81.4304 10.705C81.3524 10.4017 81.218 10.133 81.0274 9.899C80.8454 9.65633 80.6027 9.46133 80.2994 9.314C79.996 9.16667 79.6277 9.093 79.1944 9.093ZM94.7011 20H91.0351L85.8091 6.519H89.1631C89.4491 6.519 89.6875 6.58833 89.8781 6.727C90.0775 6.857 90.2118 7.02167 90.2811 7.221L92.1531 13.266C92.3005 13.76 92.4391 14.241 92.5691 14.709C92.7078 15.177 92.8248 15.645 92.9201 16.113C93.0155 15.645 93.1325 15.177 93.2711 14.709C93.4098 14.241 93.5571 13.76 93.7131 13.266L95.6631 7.221C95.7325 7.02167 95.8625 6.857 96.0531 6.727C96.2438 6.58833 96.4691 6.519 96.7291 6.519H99.9271L94.7011 20ZM107.134 6.311C108.027 6.311 108.842 6.44967 109.578 6.727C110.324 7.00433 110.961 7.40733 111.489 7.936C112.027 8.46467 112.443 9.11467 112.737 9.886C113.041 10.6487 113.192 11.5153 113.192 12.486C113.192 12.7893 113.179 13.0363 113.153 13.227C113.127 13.4177 113.08 13.5693 113.01 13.682C112.941 13.7947 112.846 13.8727 112.724 13.916C112.612 13.9593 112.464 13.981 112.282 13.981H104.508C104.638 15.1077 104.981 15.9267 105.535 16.438C106.09 16.9407 106.805 17.192 107.68 17.192C108.148 17.192 108.551 17.1357 108.889 17.023C109.227 16.9103 109.526 16.7847 109.786 16.646C110.055 16.5073 110.298 16.3817 110.514 16.269C110.74 16.1563 110.974 16.1 111.216 16.1C111.537 16.1 111.78 16.217 111.944 16.451L113.114 17.894C112.698 18.3707 112.248 18.7607 111.762 19.064C111.286 19.3587 110.792 19.5927 110.28 19.766C109.778 19.9307 109.271 20.0433 108.759 20.104C108.257 20.1733 107.776 20.208 107.316 20.208C106.372 20.208 105.483 20.0563 104.651 19.753C103.828 19.441 103.104 18.9817 102.48 18.375C101.865 17.7683 101.375 17.0143 101.011 16.113C100.656 15.2117 100.478 14.163 100.478 12.967C100.478 12.0657 100.63 11.212 100.933 10.406C101.245 9.6 101.687 8.89367 102.259 8.287C102.84 7.68033 103.538 7.19933 104.352 6.844C105.176 6.48867 106.103 6.311 107.134 6.311ZM107.212 9.093C106.441 9.093 105.839 9.314 105.405 9.756C104.972 10.1893 104.686 10.8177 104.547 11.641H109.578C109.578 11.3203 109.535 11.0083 109.448 10.705C109.37 10.4017 109.236 10.133 109.045 9.899C108.863 9.65633 108.621 9.46133 108.317 9.314C108.014 9.16667 107.646 9.093 107.212 9.093ZM119.925 0.538999V20H115.895V0.538999H119.925ZM129.445 6.311C130.468 6.311 131.399 6.47133 132.24 6.792C133.081 7.11267 133.8 7.572 134.398 8.17C135.005 8.768 135.473 9.496 135.802 10.354C136.14 11.2033 136.309 12.161 136.309 13.227C136.309 14.3017 136.14 15.2723 135.802 16.139C135.473 16.997 135.005 17.7293 134.398 18.336C133.8 18.934 133.081 19.3977 132.24 19.727C131.399 20.0477 130.468 20.208 129.445 20.208C128.414 20.208 127.473 20.0477 126.624 19.727C125.783 19.3977 125.055 18.934 124.44 18.336C123.833 17.7293 123.361 16.997 123.023 16.139C122.694 15.2723 122.529 14.3017 122.529 13.227C122.529 12.161 122.694 11.2033 123.023 10.354C123.361 9.496 123.833 8.768 124.44 8.17C125.055 7.572 125.783 7.11267 126.624 6.792C127.473 6.47133 128.414 6.311 129.445 6.311ZM129.445 17.218C130.372 17.218 131.053 16.893 131.486 16.243C131.928 15.5843 132.149 14.5877 132.149 13.253C132.149 11.9183 131.928 10.926 131.486 10.276C131.053 9.626 130.372 9.301 129.445 9.301C128.492 9.301 127.794 9.626 127.352 10.276C126.91 10.926 126.689 11.9183 126.689 13.253C126.689 14.5877 126.91 15.5843 127.352 16.243C127.794 16.893 128.492 17.218 129.445 17.218ZM138.781 24.277V6.519H141.277C141.528 6.519 141.736 6.57533 141.901 6.688C142.074 6.80067 142.196 6.96967 142.265 7.195L142.564 8.183C142.824 7.897 143.101 7.637 143.396 7.403C143.699 7.169 144.02 6.96967 144.358 6.805C144.705 6.63167 145.073 6.49733 145.463 6.402C145.862 6.30667 146.295 6.259 146.763 6.259C147.465 6.259 148.115 6.415 148.713 6.727C149.311 7.039 149.827 7.48967 150.26 8.079C150.693 8.66833 151.031 9.392 151.274 10.25C151.525 11.0993 151.651 12.0657 151.651 13.149C151.651 14.163 151.508 15.099 151.222 15.957C150.945 16.815 150.55 17.5603 150.039 18.193C149.536 18.8257 148.93 19.3197 148.219 19.675C147.517 20.0303 146.737 20.208 145.879 20.208C145.177 20.208 144.588 20.1083 144.111 19.909C143.634 19.7097 143.201 19.441 142.811 19.103V24.277H138.781ZM145.359 9.34C145.064 9.34 144.796 9.37033 144.553 9.431C144.319 9.483 144.098 9.561 143.89 9.665C143.691 9.769 143.504 9.90333 143.331 10.068C143.158 10.224 142.984 10.406 142.811 10.614V16.334C143.114 16.672 143.444 16.9103 143.799 17.049C144.154 17.179 144.527 17.244 144.917 17.244C145.29 17.244 145.632 17.1703 145.944 17.023C146.256 16.8757 146.525 16.6417 146.75 16.321C146.984 15.9917 147.166 15.567 147.296 15.047C147.426 14.527 147.491 13.8943 147.491 13.149C147.491 12.4383 147.439 11.8403 147.335 11.355C147.231 10.8697 147.084 10.4797 146.893 10.185C146.711 9.88167 146.49 9.665 146.23 9.535C145.97 9.405 145.68 9.34 145.359 9.34ZM159.844 6.311C160.737 6.311 161.552 6.44967 162.288 6.727C163.034 7.00433 163.671 7.40733 164.199 7.936C164.737 8.46467 165.153 9.11467 165.447 9.886C165.751 10.6487 165.902 11.5153 165.902 12.486C165.902 12.7893 165.889 13.0363 165.863 13.227C165.837 13.4177 165.79 13.5693 165.72 13.682C165.651 13.7947 165.556 13.8727 165.434 13.916C165.322 13.9593 165.174 13.981 164.992 13.981H157.218C157.348 15.1077 157.691 15.9267 158.245 16.438C158.8 16.9407 159.515 17.192 160.39 17.192C160.858 17.192 161.261 17.1357 161.599 17.023C161.937 16.9103 162.236 16.7847 162.496 16.646C162.765 16.5073 163.008 16.3817 163.224 16.269C163.45 16.1563 163.684 16.1 163.926 16.1C164.247 16.1 164.49 16.217 164.654 16.451L165.824 17.894C165.408 18.3707 164.958 18.7607 164.472 19.064C163.996 19.3587 163.502 19.5927 162.99 19.766C162.488 19.9307 161.981 20.0433 161.469 20.104C160.967 20.1733 160.486 20.208 160.026 20.208C159.082 20.208 158.193 20.0563 157.361 19.753C156.538 19.441 155.814 18.9817 155.19 18.375C154.575 17.7683 154.085 17.0143 153.721 16.113C153.366 15.2117 153.188 14.163 153.188 12.967C153.188 12.0657 153.34 11.212 153.643 10.406C153.955 9.6 154.397 8.89367 154.969 8.287C155.55 7.68033 156.248 7.19933 157.062 6.844C157.886 6.48867 158.813 6.311 159.844 6.311ZM159.922 9.093C159.151 9.093 158.549 9.314 158.115 9.756C157.682 10.1893 157.396 10.8177 157.257 11.641H162.288C162.288 11.3203 162.245 11.0083 162.158 10.705C162.08 10.4017 161.946 10.133 161.755 9.899C161.573 9.65633 161.331 9.46133 161.027 9.314C160.724 9.16667 160.356 9.093 159.922 9.093ZM168.475 20V6.519H170.867C171.066 6.519 171.231 6.53633 171.361 6.571C171.5 6.60567 171.612 6.662 171.699 6.74C171.794 6.80933 171.864 6.90467 171.907 7.026C171.959 7.14733 172.002 7.29467 172.037 7.468L172.258 8.729C172.752 7.96633 173.307 7.364 173.922 6.922C174.537 6.48 175.209 6.259 175.937 6.259C176.552 6.259 177.046 6.40633 177.419 6.701L176.899 9.665C176.864 9.847 176.795 9.977 176.691 10.055C176.587 10.1243 176.448 10.159 176.275 10.159C176.128 10.159 175.954 10.1417 175.755 10.107C175.556 10.0637 175.304 10.042 175.001 10.042C173.944 10.042 173.112 10.6053 172.505 11.732V20H168.475Z" fill="#121111"/>
</svg>
